X:227
T:Paddy Fahy's Reel "3"  
F:file ID misc/227paddy_f
B:"Play 50 Reels" (Armagh Pipers' Club) [as "Fahey"]
Z:bill@capeirish.com
Q:180
L:1/8
M:4/4
R:reel
K:D % source key = C
dcAG EFGE|A2EA cAce|dcAB cdef|gefe dfec|
dcAG EFGE|A2EA cAce|dcAB cded|cAGE D4:|
d2 fa gfde|dcAG EFGE|Adcd adfa|gedc AddA|
d2 ge fded|cAAB c3d|eaag efge|1 aged cABc:|
[2"last time"aged cABc|d8|

